!!!!SEGMENT: Any2016-Salve_Regina--Munich_19.krn
!!!id: Any2016
!!!AGN: Motet
!!!voices: 4
!!!COM: Ludwig Senfl
!!!OTL: Salve, Regina (Munich 19)
**kern	**text	**kern	**text	**kern	**text	**kern	**text
*part4	*part4	*part3	*part3	*part2	*part2	*part1	*part1
*staff4	*staff4	*staff3	*staff3	*staff2	*staff2	*staff1	*staff1
*I"Bassus	*	*I"Tenor	*	*I"Altus	*	*I"Superius	*
*I'B	*	*I'T	*	*I'A	*	*I'S	*
*clefF4	*	*clefGv2	*	*clefG2	*	*clefG2	*
*k[]	*	*k[]	*	*k[]	*	*k[]	*
*C:	*	*C:	*	*C:	*	*C:	*
*M3/1	*	*M3/1	*	*M3/1	*	*M3/1	*
*met(O)	*	*met(O)	*	*met(O)	*	*met(O)	*
!!section: Versus 2: Vita, dulcedo
!!!OMD: Versus 2: Vita, dulcedo
=1	=1	=1	=1	=1	=1	=1	=1
0.r	.	0.e	Vi-	0.r	.	2.ee	Vi-
.	.	.	.	.	.	4ff	.
.	.	.	.	.	.	4gg	.
.	.	.	.	.	.	4ee	.
.	.	.	.	.	.	2.gg	.
.	.	.	.	.	.	4ff	.
.	.	.	.	.	.	4ee	.
.	.	.	.	.	.	4dd	.
=2	=2	=2	=2	=2	=2	=2	=2
0.r	.	0.f	.	0.r	.	1.cc	.
.	.	.	.	.	.	2a	.
.	.	.	.	.	.	2cc	.
.	.	.	.	.	.	2dd	.
=3	=3	=3	=3	=3	=3	=3	=3
0.A	Vi-	0.e	.	2.a	Vi-	1ee	-ta,
.	.	.	.	4b	.	.	.
.	.	.	.	4cc	.	2r	.
.	.	.	.	4a	.	.	.
.	.	.	.	2.cc	.	1ee	vi-
.	.	.	.	4b	.	.	.
.	.	.	.	4a	.	2cc	.
.	.	.	.	4g	.	.	.
=4	=4	=4	=4	=4	=4	=4	=4
0.B	.	0.d	.	1.f	.	2.dd	.
.	.	.	.	.	.	4ee	.
.	.	.	.	.	.	4ff	.
.	.	.	.	.	.	4dd	.
.	.	.	.	2d	.	1ff	.
.	.	.	.	2f	.	.	.
.	.	.	.	2g	.	4ee	.
.	.	.	.	.	.	4dd	.
=5	=5	=5	=5	=5	=5	=5	=5
0.A	.	0e	.	1a	-ta,	2.cc	.
.	.	.	.	.	.	4dd	.
.	.	.	.	2r	.	4ee	.
.	.	.	.	.	.	4cc	.
.	.	.	.	1a	vi-	1ee	.
.	.	1A	-ta,	.	.	.	.
.	.	.	.	2f	.	4dd	.
.	.	.	.	.	.	4cc	.
=6	=6	=6	=6	=6	=6	=6	=6
0.G	.	0.r	.	1.g	.	2b	.
.	.	.	.	.	.	2ee	.
.	.	.	.	.	.	2dd	.
.	.	.	.	2e	.	1cc	.
.	.	.	.	2d	.	.	.
.	.	.	.	2g	.	2b	.
=7	=7	=7	=7	=7	=7	=7	=7
0.A	.	0.e	dul-	2e	.	2.cc	.
.	.	.	.	4a	.	.	.
.	.	.	.	4b	.	4dd	.
.	.	.	.	4cc	.	4ee	.
.	.	.	.	4a	.	4cc	.
.	.	.	.	2.cc	.	2.ee	.
.	.	.	.	4b	.	4dd	.
.	.	.	.	4a	.	4cc	.
.	.	.	.	4g	.	4b	.
=8	=8	=8	=8	=8	=8	=8	=8
0D	-ta,	0.f	.	2f	.	1.a	.
.	.	.	.	2d	.	.	.
.	.	.	.	1a	-ta,	.	.
.	.	.	.	.	.	2f	.
1r	.	.	.	1r	.	2.a	.
.	.	.	.	.	.	4b	.
=9	=9	=9	=9	=9	=9	=9	=9
0.A	dul-	0.e	.	2.a	vi-	1cc	-ta,
.	.	.	.	4b	.	.	.
.	.	.	.	4cc	.	2r	.
.	.	.	.	4a	.	.	.
.	.	.	.	2.cc	.	2.a	dul-
.	.	.	.	4b	.	4b	.
.	.	.	.	4a	.	2cc	.
.	.	.	.	4g	.	.	.
=10	=10	=10	=10	=10	=10	=10	=10
0.B	.	0.d	.	1f	-ta,	0dd	-ce-
.	.	.	.	2r	.	.	.
.	.	.	.	1f	dul-	.	.
.	.	.	.	.	.	1dd	-do,
.	.	.	.	4e	.	.	.
.	.	.	.	4d	.	.	.
=11	=11	=11	=11	=11	=11	=11	=11
0.A	.	0.c	-ce-	2f	.	2r	.
.	.	.	.	2e	.	1ee	dul-
.	.	.	.	2r	.	.	.
.	.	.	.	1e	-ce-	4dd	.
.	.	.	.	.	.	4cc	.
.	.	.	.	.	.	1cc	.
.	.	.	.	4d	.	.	.
.	.	.	.	4c	.	.	.
=12	=12	=12	=12	=12	=12	=12	=12
0.G	.	0.B	.	2e	.	2r	.
.	.	.	.	2d	-do,	1dd	-ce-
.	.	.	.	2r	.	.	.
.	.	.	.	2.d	dul-	4cc	.
.	.	.	.	.	.	4b	.
.	.	.	.	.	.	1b	.
.	.	.	.	4c	.	.	.
.	.	.	.	4d	.	.	.
.	.	.	.	4e	.	.	.
=13	=13	=13	=13	=13	=13	=13	=13
0.F	-ce-	0c	.	1f	.	2a	.
.	.	.	.	.	.	1cc	.
.	.	.	.	0f	-ce-	.	.
.	.	.	.	.	.	4b	.
.	.	.	.	.	.	4a	.
.	.	1d	.	.	.	1a	.
=14	=14	=14	=14	=14	=14	=14	=14
0.E	.	2B	.	1g	-do,	2.ee	.
.	.	1c	.	.	.	.	.
.	.	.	.	.	.	4ff	.
.	.	.	.	2r	.	4gg	.
.	.	.	.	.	.	4ee	.
.	.	4B	.	2.e	dul-	2.gg	.
.	.	4A	.	.	.	.	.
.	.	1B	.	.	.	.	.
.	.	.	.	4f	.	4ff	.
.	.	.	.	2g	.	4ee	.
.	.	.	.	.	.	4dd	.
=15	=15	=15	=15	=15	=15	=15	=15
0F	.	0A	-do	4a	.	2cc	.
.	.	.	.	4f	.	.	.
.	.	.	.	2.a	.	2.ff	.
.	.	.	.	4g	.	4ee	.
.	.	.	.	4f	.	4dd	.
.	.	.	.	4e	.	4cc	.
1G	.	1r	.	2d	.	2b	.
.	.	.	.	[2g	.	[2ee	.
=16	=16	=16	=16	=16	=16	=16	=16
2E	.	1r	.	2g]	.	4ee]	.
.	.	.	.	.	.	4dd	.
1F	.	.	.	2.a	.	4cc	.
.	.	.	.	.	.	4b	.
.	.	1r	.	.	.	2a	.
.	.	.	.	4A	.	.	.
4E	.	.	.	1d	-ce-	4g	.
4D	.	.	.	.	.	4f	.
1E	.	1G	et	.	.	1g	.
.	.	.	.	2c#i	.	.	.
=17	=17	=17	=17	=17	=17	=17	=17
0D	-do	0A	spes	1d	-do	1f	-do
.	.	.	.	2r	.	2r	.
.	.	.	.	1a	et	1ff	et
1r	.	1c	no-	.	.	.	.
.	.	.	.	2g	spes	2ee	spes
=18	=18	=18	=18	=18	=18	=18	=18
0.r	.	2.d	-stra,	2f	.	2.ff	.
.	.	.	.	1a	.	.	.
.	.	4c	.	.	.	4ee	.
.	.	2d	.	.	.	2ff	.
.	.	1e	.	2g	no-	1gg	no-
.	.	.	.	1a	.	.	.
.	.	2d	.	.	.	2ff#i	.
=19	=19	=19	=19	=19	=19	=19	=19
1r	.	0.e	.	2.g	.	1.gg	.
.	.	.	.	4a	.	.	.
1r	.	.	.	2b	.	.	.
.	.	.	.	2.cc	.	2.ee	.
1C	et	.	.	.	.	.	.
.	.	.	.	4b	.	4dd	.
.	.	.	.	4a	.	4cc	.
.	.	.	.	4g	.	4b	.
=20	=20	=20	=20	=20	=20	=20	=20
0D	spes	0.r	.	2.f	.	2a	.
.	.	.	.	.	.	4dd	.
.	.	.	.	4g	.	4ee	.
.	.	.	.	4a	.	4ff	.
.	.	.	.	4f	.	4dd	.
.	.	.	.	2.a	.	2.ff	.
1F	no-	.	.	.	.	.	.
.	.	.	.	4g	.	4ee	.
.	.	.	.	4f	.	4dd	.
.	.	.	.	4e	.	4cc	.
=21	=21	=21	=21	=21	=21	=21	=21
2.G	-stra,	1r	.	1d	.	2b	.
.	.	.	.	.	.	1dd	.
4F	.	.	.	.	.	.	.
2G	.	2r	.	2r	.	.	.
1A	.	2A	sal-	2.e	.	2cc	.
.	.	1B	.	.	.	1b	.
.	.	.	.	4f	.	.	.
2G	.	.	.	2g	.	.	.
=22	=22	=22	=22	=22	=22	=22	=22
1A	.	1c	.	2e	.	2a	.
.	.	.	.	2c	.	2ee	.
2r	.	2B	.	1d	-stra,	2.dd	-stra,
2D	sal-	1A	.	.	.	.	.
.	.	.	.	.	.	4cc	.
1E	.	.	.	2r	.	1b	.
.	.	2G	.	2g	sal-	.	.
=23	=23	=23	=23	=23	=23	=23	=23
1F	.	1A	-ve,	2.c	.	2r	.
.	.	.	.	.	.	2a	sal-
.	.	.	.	4d	.	.	.
2E	.	2r	.	2e	.	2g	.
1D	.	2d	sal-	2.A	.	2f	.
.	.	1e	.	.	.	1e	.
.	.	.	.	4B	.	.	.
2C	.	.	.	2c	.	.	.
=24	=24	=24	=24	=24	=24	=24	=24
1D	-ve,	1f	.	2A	.	1d	-ve,
.	.	.	.	2a	.	.	.
1r	.	2e	.	2g	.	2r	.
.	.	1d	.	2f	.	2dd	sal-
1r	.	.	.	1e	.	1ee	.
.	.	2c	.	.	.	.	.
=25	=25	=25	=25	=25	=25	=25	=25
2r	.	2d	.	1d	-ve,	1ff	.
2d	sal-	2f	.	.	.	.	.
2c	.	2g	.	2r	.	2ee	.
2B	.	2d	.	2g	sal-	1dd	.
1A	.	1e	.	1a	.	.	.
.	.	.	.	.	.	2cc#i	.
=26	=26	=26	=26	=26	=26	=26	=26
00D	-ve.	00d	-ve.	00a	-ve.	00dd	-ve.
=27||	=27||	=27||	=27||	=27||	=27||	=27||	=27||
*M2/1	*	*M2/1	*	*M2/1	*	*M2/1	*
*met(C|)	*	*met(C|)	*	*met(C|)	*	*met(C|)	*
!!section: Versus 4: Ad te suspiramus
!!!OMD: Versus 4: Ad te suspiramus
0r	.	0r	.	0f	Ad	0r	.
=28	=28	=28	=28	=28	=28	=28	=28
0r	.	0r	.	0g	.	0r	.
=29	=29	=29	=29	=29	=29	=29	=29
0F	Ad	0r	.	1a	te,	0r	.
.	.	.	.	2r	.	.	.
.	.	.	.	2a	ad	.	.
=30	=30	=30	=30	=30	=30	=30	=30
0G	.	0r	.	2.g	te,	0r	.
.	.	.	.	4f	.	.	.
.	.	.	.	2e	.	.	.
.	.	.	.	2d	.	.	.
=31	=31	=31	=31	=31	=31	=31	=31
0A	te	0r	.	1c	.	0cc	Ad
.	.	.	.	2r	.	.	.
.	.	.	.	2e	ad	.	.
=32	=32	=32	=32	=32	=32	=32	=32
0r	.	0r	.	2.d	te,	0dd	.
.	.	.	.	4c	.	.	.
.	.	.	.	4B	.	.	.
.	.	.	.	4A	.	.	.
.	.	.	.	2G	.	.	.
=33	=33	=33	=33	=33	=33	=33	=33
0r	.	0c	Ad	2r	.	1ee	te,
.	.	.	.	1g	ad	.	.
.	.	.	.	.	.	2r	.
.	.	.	.	2a	.	2ee	ad
=34	=34	=34	=34	=34	=34	=34	=34
0r	.	0d	.	2f	te,	2.dd	te,
.	.	.	.	1g	.	.	.
.	.	.	.	.	.	4cc	.
.	.	.	.	.	.	2b	.
.	.	.	.	2f	.	2a	.
=35	=35	=35	=35	=35	=35	=35	=35
0c	su-	0e	te	1g	.	1g	.
.	.	.	.	2r	.	2r	.
.	.	.	.	2e	ad	2cc	ad
=36	=36	=36	=36	=36	=36	=36	=36
0G	-spi-	0r	.	2.g	te	2.b	te
.	.	.	.	4f	.	4a	.
.	.	.	.	2e	.	2.g	.
.	.	.	.	2d	.	.	.
.	.	.	.	.	.	4f	.
=37	=37	=37	=37	=37	=37	=37	=37
0A	-ra-	0r	.	2c	.	2e	.
.	.	.	.	1cc	su-	1ee	su-
.	.	.	.	4b	.	4dd	.
.	.	.	.	4a	.	4cc	.
=38	=38	=38	=38	=38	=38	=38	=38
[0G	.	0g	su-	2b	.	2dd	.
.	.	.	.	2b	-spi-	2dd	-spi-
.	.	.	.	4b	-ra-	4dd	-ra-
.	.	.	.	4a	.	4cc	.
.	.	.	.	4g	.	4b	.
.	.	.	.	4f	.	4a	.
=39	=39	=39	=39	=39	=39	=39	=39
1G]	.	0d	-spi-	1g	.	1b	.
1F	.	.	.	1a	.	2a	.
.	.	.	.	.	.	[2dd	.
=40	=40	=40	=40	=40	=40	=40	=40
1G	.	0e	-ra-	1g	-mus,	2dd]	.
.	.	.	.	.	.	4cc	.
.	.	.	.	.	.	4b	.
1A	-mus,	.	.	1r	.	4cc	.
.	.	.	.	.	.	4b	.
.	.	.	.	.	.	4a	.
.	.	.	.	.	.	4g	.
=41	=41	=41	=41	=41	=41	=41	=41
1D	ge-	[0d	.	2r	.	2f	.
.	.	.	.	2a	ge-	2.ff	.
1F	-men-	.	.	4a	-men-	.	.
.	.	.	.	4g	.	4ee	.
.	.	.	.	4f	.	4dd	.
.	.	.	.	4e	.	4cc	.
=42	=42	=42	=42	=42	=42	=42	=42
1G	-tes,	1d]	.	2d	.	2b	.
.	.	.	.	1g	.	2dd	.
1r	.	1c	.	.	.	2ee	.
.	.	.	.	2e	.	2gg	.
=43	=43	=43	=43	=43	=43	=43	=43
0r	.	1d	.	2f	.	4ff	.
.	.	.	.	.	.	4ee	.
.	.	.	.	2a	.	4dd	.
.	.	.	.	.	.	4cc	.
.	.	1e	-mus,	4g	.	1b	.
.	.	.	.	4f	.	.	.
.	.	.	.	4e	.	.	.
.	.	.	.	4d	.	.	.
=44	=44	=44	=44	=44	=44	=44	=44
0r	.	1A	ge-	2c	-tes	1cc	-mus,
.	.	.	.	2cc	et	.	.
.	.	1c	-men-	4cc	flen-	1r	.
.	.	.	.	4b	.	.	.
.	.	.	.	4a	.	.	.
.	.	.	.	4g	.	.	.
=45	=45	=45	=45	=45	=45	=45	=45
1D	ge-	[0d	-tes	2f	.	2r	.
.	.	.	.	2.a	.	2ff	ge-
1F	-men-	.	.	.	.	4ff	-men-
.	.	.	.	4g	.	4ee	.
.	.	.	.	4f	.	4dd	.
.	.	.	.	4e	.	4cc	.
=46	=46	=46	=46	=46	=46	=46	=46
1G	-tes	0d]	.	2.d	.	2b	.
.	.	.	.	.	.	2.dd	.
.	.	.	.	4e	.	.	.
1D	et	.	.	4f	.	.	.
.	.	.	.	4e	.	4cc	.
.	.	.	.	4d	.	4b	.
.	.	.	.	4c	.	4a	.
=47	=47	=47	=47	=47	=47	=47	=47
1E	.	0r	.	2B	.	1g	.
.	.	.	.	1c	.	.	.
[1F	flen-	.	.	.	.	[1a	-tes
.	.	.	.	2A	.	.	.
=48	=48	=48	=48	=48	=48	=48	=48
1F]	.	0r	.	2c	.	1a]	.
.	.	.	.	2d	.	.	.
1E	.	.	.	2e	.	2r	.
.	.	.	.	2c	.	2ee	et
=49	=49	=49	=49	=49	=49	=49	=49
0D	.	1A	et	1d	-tes,	4ff	flen-
.	.	.	.	.	.	4ee	.
.	.	.	.	.	.	4dd	.
.	.	.	.	.	.	4cc	.
.	.	1B	.	2r	.	1dd	.
.	.	.	.	2d	et	.	.
=50	=50	=50	=50	=50	=50	=50	=50
0C	-tes	0c	flen-	2e	flen-	1g	-tes,
.	.	.	.	1g	.	.	.
.	.	.	.	.	.	1r	.
.	.	.	.	4f	.	.	.
.	.	.	.	4e	.	.	.
=51	=51	=51	=51	=51	=51	=51	=51
0r	.	1B	.	1d	.	2r	.
.	.	.	.	.	.	2b	et
.	.	[1A	.	1c	-tes	2cc	flen-
.	.	.	.	.	.	[2ee	.
=52	=52	=52	=52	=52	=52	=52	=52
0r	.	1A]	.	2r	.	2ee]	.
.	.	.	.	2c	in	4dd	.
.	.	.	.	.	.	4cc	.
.	.	1G	-tes	2d	hac	1b	.
.	.	.	.	2e	.	.	.
=53	=53	=53	=53	=53	=53	=53	=53
1D	in	1r	.	2f	.	1a	-tes
.	.	.	.	2d	.	.	.
1D	hac	1A	in	1f	.	2r	.
.	.	.	.	.	.	2dd	in
=54	=54	=54	=54	=54	=54	=54	=54
0C	.	1A	hac	1e	.	1ee	hac
.	.	1G	.	2r	.	2ee	la-
.	.	.	.	2g	la-	2ee	-cri-
=55	=55	=55	=55	=55	=55	=55	=55
0r	.	1c	la-	2e	-cri-	4ee	-ma-
.	.	.	.	.	.	4dd	.
.	.	.	.	1g	-ma-	4cc	.
.	.	.	.	.	.	4b	.
.	.	1d	.	.	.	1a	.
.	.	.	.	2f#i	.	.	.
=56	=56	=56	=56	=56	=56	=56	=56
0r	.	0e	.	2g	.	1g	-rum,
.	.	.	.	4c	.	.	.
.	.	.	.	4d	.	.	.
.	.	.	.	4e	.	1r	.
.	.	.	.	4f	.	.	.
.	.	.	.	4g	.	.	.
.	.	.	.	4e	.	.	.
=57	=57	=57	=57	=57	=57	=57	=57
1F	la-	0d	-cri-	1f	.	1a	in
1G	.	.	.	2d	.	1b	hac
.	.	.	.	2g	.	.	.
=58	=58	=58	=58	=58	=58	=58	=58
0A	.	0c	-ma-	2f	.	1cc	la-
.	.	.	.	1e	.	.	.
.	.	.	.	.	.	1cc	-cri-
.	.	.	.	4d	.	.	.
.	.	.	.	4c	.	.	.
=59	=59	=59	=59	=59	=59	=59	=59
0G	-cri-	0B	.	1g	.	1.dd	-ma-
.	.	.	.	2d	.	.	.
.	.	.	.	2e	.	4cc	.
.	.	.	.	.	.	4b	.
=60	=60	=60	=60	=60	=60	=60	=60
0F	-ma-	1c	-rum	1.f	.	1.a	.
.	.	1d	.	.	.	.	.
.	.	.	.	2d	.	2f	.
=61	=61	=61	=61	=61	=61	=61	=61
0E	.	1c	val-	1e	-rum	2g	.
.	.	.	.	.	.	1a	.
.	.	1B	.	2r	.	.	.
.	.	.	.	2e	val-	2g#i	.
=62	=62	=62	=62	=62	=62	=62	=62
1F	-rum	1A	.	2.c	.	2a	.
.	.	.	.	.	.	2cc	.
.	.	.	.	4d	.	.	.
1G	.	1G	.	2e	.	1b	-rum
.	.	.	.	[2d	.	.	.
=63	=63	=63	=63	=63	=63	=63	=63
1F	val-	1A	-le,	4d]	.	2r	.
.	.	.	.	4c	.	.	.
.	.	.	.	2.c	.	2.a	val-
1E	.	1r	.	.	.	.	.
.	.	.	.	4B	.	4g	.
.	.	.	.	[2B	.	[2g	.
=64	=64	=64	=64	=64	=64	=64	=64
1D	.	1r	.	4B]	.	4g]	.
.	.	.	.	4A	.	4f	.
.	.	.	.	2.A	.	2.f	.
1C	.	1c	val-	.	.	.	.
.	.	.	.	4G	.	4e	.
.	.	.	.	2G	-le,	2e	.
=65	=65	=65	=65	=65	=65	=65	=65
0D	-le.	1B	.	2r	.	1d	-le,
.	.	.	.	2.d	val-	.	.
.	.	1A	.	.	.	2r	.
.	.	.	.	4e	.	.	.
.	.	.	.	2f	.	2a	val-
=66	=66	=66	=66	=66	=66	=66	=66
0r	.	1G	.	1g	.	2b	.
.	.	.	.	.	.	1dd	.
.	.	[1Al	-le.	1e	.	.	.
.	.	.	.	.	.	2cc#i	.
=67	=67	=67	=67	=67	=67	=67	=67
00D	-le.	00A]	.	00d	-le.	00dd	-le.
=68||	=68||	=68||	=68||	=68||	=68||	=68||	=68||
*M2/1	*	*M2/1	*	*M2/1	*	*M2/1	*
*met(C|)	*	*met(C|)	*	*met(C|)	*	*met(C|)	*
!!section: Versus 6: Et Jesum
!!!OMD: Versus 6: Et Jesum
0r	.	0r	.	0r	.	0cc	Et
=69	=69	=69	=69	=69	=69	=69	=69
0r	.	0r	.	0r	.	0dd	Je-
=70	=70	=70	=70	=70	=70	=70	=70
0r	.	0r	.	0f	Et	1.cc	.
.	.	.	.	.	.	2dd	.
=71	=71	=71	=71	=71	=71	=71	=71
0r	.	0c	Et	0g	Je-	2ee	.
.	.	.	.	.	.	1ff	.
.	.	.	.	.	.	2ee	.
=72	=72	=72	=72	=72	=72	=72	=72
0r	.	0d	Je-	1f	.	2ff	-sum,
.	.	.	.	.	.	2f	.
.	.	.	.	2.f	-sum,	2.a	.
.	.	.	.	4g	.	4b	.
=73	=73	=73	=73	=73	=73	=73	=73
0F	Et	1c	.	1a	.	1cc	.
.	.	[1d	.	2r	.	1a	.
.	.	.	.	2a	et	.	.
=74	=74	=74	=74	=74	=74	=74	=74
0G	Je-	1d]	.	1.g	Je-	1b	.
.	.	1e	.	.	.	1g	.
.	.	.	.	2e	.	.	.
=75	=75	=75	=75	=75	=75	=75	=75
0F	.	1d	-sum,	2.f	-sum,	1a	.
.	.	.	.	4g	.	.	.
.	.	1c	.	4a	.	2r	.
.	.	.	.	4g	.	.	.
.	.	.	.	4f	.	2a	et
.	.	.	.	4e	.	.	.
=76	=76	=76	=76	=76	=76	=76	=76
0G	.	0B	.	1d	.	2.b	Je-
.	.	.	.	.	.	4cc	.
.	.	.	.	2r	.	4dd	.
.	.	.	.	.	.	4ee	.
.	.	.	.	2g	et	[2dd	.
=77	=77	=77	=77	=77	=77	=77	=77
0A	.	0r	.	2f	Je-	2dd]	.
.	.	.	.	1e	.	4cc	.
.	.	.	.	.	.	4b	.
.	.	.	.	.	.	1cc	.
.	.	.	.	4d	.	.	.
.	.	.	.	4c	.	.	.
=78	=78	=78	=78	=78	=78	=78	=78
0G	-sum,	0r	.	2.B	.	4dd	.
.	.	.	.	.	.	4cc	.
.	.	.	.	.	.	4b	.
.	.	.	.	4c	.	4a	.
.	.	.	.	2d	.	1b	.
.	.	.	.	2e	.	.	.
=79	=79	=79	=79	=79	=79	=79	=79
0F	.	1A	be-	2A	.	4cc	.
.	.	.	.	.	.	4b	.
.	.	.	.	1c	.	4a	.
.	.	.	.	.	.	4g	.
.	.	1A	-ne-	.	.	1a	.
.	.	.	.	2d	.	.	.
=80	=80	=80	=80	=80	=80	=80	=80
0E	.	1B	.	1e	-sum,	0g	-sum,
.	.	[1c	-di-	2r	.	.	.
.	.	.	.	2e	be-	.	.
=81	=81	=81	=81	=81	=81	=81	=81
1r	.	1c]	.	2g	-ne-	0r	.
.	.	.	.	2a	.	.	.
1D	be-	1B	.	2.d	.	.	.
.	.	.	.	4e	.	.	.
=82	=82	=82	=82	=82	=82	=82	=82
0D	-ne-	0A	.	2f	.	2r	.
.	.	.	.	1g	-di-	2.dd	be-
.	.	.	.	.	.	4ee	.
.	.	.	.	2f	.	2ff	-ne-
=83	=83	=83	=83	=83	=83	=83	=83
0E	.	0G	-ctum,	2g	.	2ee	-di-
.	.	.	.	2.e	.	2.gg	.
.	.	.	.	4f	.	4ff	.
.	.	.	.	2g	.	4ee	.
.	.	.	.	.	.	4dd	.
=84	=84	=84	=84	=84	=84	=84	=84
1F	-di-	0r	.	2a	.	2cc	.
.	.	.	.	2f	.	2a	.
1E	.	.	.	2g	.	2b	.
.	.	.	.	2e	.	2cc	.
=85	=85	=85	=85	=85	=85	=85	=85
0D	.	2r	.	1f	-ctum	0dd	.
.	.	2A	be-	.	.	.	.
.	.	2A	-ne-	2r	.	.	.
.	.	2B	.	2f	fru-	.	.
=86	=86	=86	=86	=86	=86	=86	=86
1C	-ctum	2.c	-di-	2e	.	1g	-ctum
.	.	.	.	1g	.	.	.
.	.	4B	.	.	.	.	.
1r	.	1A	.	.	.	2r	.
.	.	.	.	2f#i	.	2cc	fru-
=87	=87	=87	=87	=87	=87	=87	=87
1r	.	1G	-ctum	2g	.	2b	.
.	.	.	.	4G	.	2.dd	-ctum
.	.	.	.	4A	.	.	.
1G	fru-	1r	.	4B	.	.	.
.	.	.	.	4c	.	4cc	.
.	.	.	.	4d	.	2b	.
.	.	.	.	4e	.	.	.
=88	=88	=88	=88	=88	=88	=88	=88
1F	-ctum	0r	.	2f	.	1a	.
.	.	.	.	1d	.	.	.
1E	.	.	.	.	.	2r	.
.	.	.	.	2c#i	.	2ee	ven-
=89	=89	=89	=89	=89	=89	=89	=89
0D	.	1r	.	1d	.	2.ff	.
.	.	.	.	.	.	4ee	.
.	.	1d	fru-	1f	.	4dd	.
.	.	.	.	.	.	4cc	.
.	.	.	.	.	.	2dd	.
=90	=90	=90	=90	=90	=90	=90	=90
0E	ven-	1c	-ctum	0e	.	2g	.
.	.	.	.	.	.	1a	.
.	.	1B	.	.	.	.	.
.	.	.	.	.	.	2g#i	.
=91	=91	=91	=91	=91	=91	=91	=91
0F	.	0A	.	1c	-ctum	2.a	-tris
.	.	.	.	.	.	4b	.
.	.	.	.	2r	.	2cc	.
.	.	.	.	2f	ven-	[2dd	.
=92	=92	=92	=92	=92	=92	=92	=92
0G	-tris	0B	ven-	1.d	-tris	4dd]	.
.	.	.	.	.	.	4cc	.
.	.	.	.	.	.	4b	.
.	.	.	.	.	.	4a	.
.	.	.	.	.	.	1b	.
.	.	.	.	2e	.	.	.
=93	=93	=93	=93	=93	=93	=93	=93
1.F	tu-	0c	.	1f	.	2r	.
.	.	.	.	.	.	1a	tu-
.	.	.	.	2F	.	.	.
2E	.	.	.	2G	.	2g	.
=94	=94	=94	=94	=94	=94	=94	=94
1D	.	1d	-tris	2A	.	2f	.
.	.	.	.	2B	.	2d	.
1C	.	1r	.	2.c	tu-	1e	.
.	.	.	.	8dL	.	.	.
.	.	.	.	8eJ	.	.	.
=95	=95	=95	=95	=95	=95	=95	=95
1D	-i,	1r	.	1f	.	2d	-i,
.	.	.	.	.	.	2dd	tu-
1r	.	1c	tu-	1g	-i,	1ee	.
=96	=96	=96	=96	=96	=96	=96	=96
0r	.	2B	.	2r	.	2dd	.
.	.	1A	.	2.e	tu-	2cc	.
.	.	.	.	.	.	1b	-i,
.	.	.	.	4f	.	.	.
.	.	2G	.	2g	.	.	.
=97	=97	=97	=97	=97	=97	=97	=97
2.F	no-	1A	-i,	2c	-i,	2.a	no-
.	.	.	.	2f	no-	.	.
4G	.	.	.	.	.	4b	.
2A	.	1r	.	2e	.	2cc	.
[2B-i	.	.	.	[2d	.	[2dd	.
=98	=98	=98	=98	=98	=98	=98	=98
2B-]	.	0r	.	2d]	.	2dd]	.
1A	.	.	.	2e	.	1cc	.
.	.	.	.	2f	.	.	.
2G	.	.	.	2g	.	2b	.
=99	=99	=99	=99	=99	=99	=99	=99
0A	-bis	2.c	no-	1e	-bis,	1cc	-bis,
.	.	4d	.	.	.	.	.
.	.	2e	.	2r	.	2r	.
.	.	[2f	.	[2a	no-	[2cc	no-
=100	=100	=100	=100	=100	=100	=100	=100
0r	.	2f]	.	2a]	.	4cc]	.
.	.	.	.	.	.	4dd	.
.	.	1e	.	2g	.	2ee	.
.	.	.	.	2.f	.	1ff	.
.	.	2d	.	.	.	.	.
.	.	.	.	8eL	.	.	.
.	.	.	.	8dJ	.	.	.
=101	=101	=101	=101	=101	=101	=101	=101
0r	.	1e	-bis	1c	-bis	1ee	-bis
.	.	1e	post	2r	.	2r	.
.	.	.	.	2g	post	2ee	post
=102	=102	=102	=102	=102	=102	=102	=102
1r	.	1d	.	2a	.	2ff	.
.	.	.	.	2f	.	2dd	hoc
1A	post	1c	.	2.e	hoc	2ee	.
.	.	.	.	.	.	2cc	e-
.	.	.	.	4f	.	.	.
=103	=103	=103	=103	=103	=103	=103	=103
1G	.	[0d	hoc	2g	.	2b	-xi-
.	.	.	.	2G	e-	2b	-li-
1F	.	.	.	2A	-xi-	1a	-um,
.	.	.	.	2A	-li-	.	.
=104	=104	=104	=104	=104	=104	=104	=104
0G	hoc	0d]	.	2B	-um,	2r	.
.	.	.	.	4G	e-	2b	e-
.	.	.	.	4A	.	.	.
.	.	.	.	4B	.	4g	-xi-
.	.	.	.	4c	.	4a	.
.	.	.	.	4d	.	4b	.
.	.	.	.	4e	.	4cc	.
=105	=105	=105	=105	=105	=105	=105	=105
1D	e-	0r	.	4f	.	4dd	.
.	.	.	.	4e	.	4cc	.
.	.	.	.	4d	.	4b	.
.	.	.	.	4c	.	4a	.
1E	.	.	.	2B	.	1g	.
.	.	.	.	[2c	-xi-	.	.
=106	=106	=106	=106	=106	=106	=106	=106
1.F	-xi-	0r	.	2c]	.	1.a	.
.	.	.	.	2.A	.	.	.
.	.	.	.	4B	.	.	.
2E	.	.	.	4c	.	2g	.
.	.	.	.	4B	.	.	.
=107	=107	=107	=107	=107	=107	=107	=107
1D	.	1A	e-	1d	.	2f	.
.	.	.	.	.	.	2d	.
1D	-li-	1B	.	1d	-li-	1dd	.
=108	=108	=108	=108	=108	=108	=108	=108
1C	-um	1.c	-xi-	1G	-um,	1.ee	.
1r	.	.	.	2r	.	.	.
.	.	2B	.	2g	e-	2dd	-li-
=109	=109	=109	=109	=109	=109	=109	=109
0r	.	1A	.	2a	-xi-	2cc	-um
.	.	.	.	2a	-li-	1ee	.
.	.	1A	-li-	2e	-um	.	.
.	.	.	.	2f	.	4dd	.
.	.	.	.	.	.	4cc	.
=110	=110	=110	=110	=110	=110	=110	=110
0E	o-	1G	-um	1g	.	1b	.
.	.	1r	.	2r	.	2r	.
.	.	.	.	[2g	o-	[2b	o-
=111	=111	=111	=111	=111	=111	=111	=111
0D	.	0r	.	2g]	.	2b]	.
.	.	.	.	4f	.	4a	.
.	.	.	.	4e	.	4g	.
.	.	.	.	1f	.	1a	.
=112	=112	=112	=112	=112	=112	=112	=112
0E	.	0B	o-	2.e	-sten-	2.g	-sten-
.	.	.	.	4f	.	4a	.
.	.	.	.	4g	.	2b	.
.	.	.	.	4f	.	.	.
.	.	.	.	4e	.	2g	.
.	.	.	.	4d	.	.	.
=113	=113	=113	=113	=113	=113	=113	=113
0F	.	0A	.	1.c	.	2a	.
.	.	.	.	.	.	1cc	.
.	.	.	.	2d	.	4b	.
.	.	.	.	.	.	4a	.
=114	=114	=114	=114	=114	=114	=114	=114
1E	.	0B	.	1e	-de,	4g	.
.	.	.	.	.	.	4a	.
.	.	.	.	.	.	4b	.
.	.	.	.	.	.	4cc	.
1D	.	.	.	2r	.	1dd	.
.	.	.	.	2f	o-	.	.
=115	=115	=115	=115	=115	=115	=115	=115
0C	-sten-	0c	.	2e	-sten-	1ee	-de,
.	.	.	.	2a	.	.	.
.	.	.	.	1g	-de,	2r	.
.	.	.	.	.	.	2ee	o-
=116	=116	=116	=116	=116	=116	=116	=116
0D	-de.	1B	.	1r	.	2.dd	-sten-
.	.	.	.	.	.	4ee	.
.	.	1A	.	2r	.	2ff	.
.	.	.	.	2f	o-	[2dd	.
=117	=117	=117	=117	=117	=117	=117	=117
0r	.	0G	-sten-	2g	-sten-	4dd]	.
.	.	.	.	.	.	4cc	.
.	.	.	.	2G	.	4b	.
.	.	.	.	.	.	4a	.
.	.	.	.	2.B	.	1g	.
.	.	.	.	4c	.	.	.
=118	=118	=118	=118	=118	=118	=118	=118
[0Dl	-de.	[0Al	-de.	[0dl	-de.	2f	.
.	.	.	.	.	.	1ff	.
.	.	.	.	.	.	2dd	.
=119	=119	=119	=119	=119	=119	=119	=119
00D]	.	00A]	.	00d]	.	00dd	-de.
=120||	=120||	=120||	=120||	=120||	=120||	=120||	=120||
*M2/1	*	*M2/1	*	*M2/1	*	*M2/1	*
*met(C|)	*	*met(C|)	*	*met(C|)	*	*met(C|)	*
!!section: Versus 8: O, pia
!!!OMD: Versus 8: O, pia
0r	.	0r	.	0a	o,	1ee	o,
.	.	.	.	.	.	2cc	.
.	.	.	.	.	.	[2ee	.
=121	=121	=121	=121	=121	=121	=121	=121
0r	.	0r	.	0g	.	2ee]	.
.	.	.	.	.	.	4dd	.
.	.	.	.	.	.	4cc	.
.	.	.	.	.	.	1b	.
=122	=122	=122	=122	=122	=122	=122	=122
0A	o,	0r	.	2a	.	2a	.
.	.	.	.	2e	.	1cc	.
.	.	.	.	2c	.	.	.
.	.	.	.	[2e	.	4b	.
.	.	.	.	.	.	4a	.
=123	=123	=123	=123	=123	=123	=123	=123
0G	.	0r	.	2e]	.	2.b	.
.	.	.	.	4d	.	.	.
.	.	.	.	4c	.	4cc	.
.	.	.	.	1B	.	1dd	.
=124	=124	=124	=124	=124	=124	=124	=124
0A	.	0e	o,	2A	.	1cc	.
.	.	.	.	2.a	.	.	.
.	.	.	.	.	.	2r	.
.	.	.	.	4g	.	.	.
.	.	.	.	2e	.	2cc	o,
=125	=125	=125	=125	=125	=125	=125	=125
0r	.	0d	.	2f	.	2dd	.
.	.	.	.	1g	.	2b	.
.	.	.	.	.	.	1a	.
.	.	.	.	2f#i	.	.	.
=126	=126	=126	=126	=126	=126	=126	=126
0c	o	0e	.	1g	.	2g	.
.	.	.	.	.	.	1gg	.
.	.	.	.	2r	.	.	.
.	.	.	.	[2g	o,	4ff	.
.	.	.	.	.	.	4ee	.
=127	=127	=127	=127	=127	=127	=127	=127
0B	.	0r	.	2g]	.	1dd	.
.	.	.	.	4f	.	.	.
.	.	.	.	4e	.	.	.
.	.	.	.	2d	.	2r	.
.	.	.	.	2g	.	2dd	o,
=128	=128	=128	=128	=128	=128	=128	=128
0c	.	0g	o	1e	.	2ee	.
.	.	.	.	.	.	2.cc	.
.	.	.	.	2r	.	.	.
.	.	.	.	.	.	4dd	.
.	.	.	.	2e	o,	2ee	.
=129	=129	=129	=129	=129	=129	=129	=129
0d	.	0f	.	2f	.	1a	.
.	.	.	.	1a	.	.	.
.	.	.	.	.	.	1dd	.
.	.	.	.	4g	.	.	.
.	.	.	.	4f	.	.	.
=130	=130	=130	=130	=130	=130	=130	=130
0r	.	0g	.	2.e	.	1r	.
.	.	.	.	4d	.	.	.
.	.	.	.	2c	.	2r	.
.	.	.	.	2B	.	2b	o,
=131	=131	=131	=131	=131	=131	=131	=131
0r	.	0a	.	2.A	.	2cc	.
.	.	.	.	.	.	1ee	.
.	.	.	.	4B	.	.	.
.	.	.	.	2c	.	.	.
.	.	.	.	2d	.	4dd	.
.	.	.	.	.	.	4cc	.
=132	=132	=132	=132	=132	=132	=132	=132
0r	.	0g	pi-	1e	.	1b	.
.	.	.	.	2r	.	2r	.
.	.	.	.	2e	o	2g	o
=133	=133	=133	=133	=133	=133	=133	=133
0r	.	0f	.	2f	.	2a	.
.	.	.	.	2F	.	1cc	.
.	.	.	.	2A	.	.	.
.	.	.	.	2B	.	4b	.
.	.	.	.	.	.	4a	.
=134	=134	=134	=134	=134	=134	=134	=134
0c	pi-	0e	.	2c	pi-	1.g	pi-
.	.	.	.	2d	.	.	.
.	.	.	.	2e	.	.	.
.	.	.	.	2f	.	2a	.
=135	=135	=135	=135	=135	=135	=135	=135
0B	.	0d	.	2g	.	2b	.
.	.	.	.	1a	.	2cc	.
.	.	.	.	.	.	2dd	.
.	.	.	.	2g	.	2b	.
=136	=136	=136	=136	=136	=136	=136	=136
0A	.	0e	-a,	1a	.	2cc	.
.	.	.	.	.	.	1ee	.
.	.	.	.	2r	.	.	.
.	.	.	.	[2e	.	4dd	.
.	.	.	.	.	.	4cc	.
=137	=137	=137	=137	=137	=137	=137	=137
0G	.	0r	.	2e]	.	2b	.
.	.	.	.	4d	.	1cc	.
.	.	.	.	4c	.	.	.
.	.	.	.	1d	.	.	.
.	.	.	.	.	.	2b	.
=138	=138	=138	=138	=138	=138	=138	=138
0A	-a,	[0el	-a,	2c	.	2cc	.
.	.	.	.	1cc	.	1ee	.
.	.	.	.	4b	.	4dd	.
.	.	.	.	4a	.	4cc	.
=139	=139	=139	=139	=139	=139	=139	=139
0r	.	0e_	.	2g#i	.	2b	.
.	.	.	.	1a	.	1cc	.
.	.	.	.	2g#i	.	2b	.
=140	=140	=140	=140	=140	=140	=140	=140
00Al	-a,	00e]	.	00al	-a,	00ccl	-a,
==	==	==	==	==	==	==	==
*-	*-	*-	*-	*-	*-	*-	*-
!!!system-decoration: [*]
!!!RDF**kern: i = editorial accidental
!!!RDF**kern: l = terminal long
!!!!PTL: <i> New Senfl Edition: Motets for Four Voices (N-V) </i>
!!!PPR: Hollitzer Verlag
!!!PC#: Denkmäler der Tonkunst in Österreich 163.2
!!!PDT: 2022
!!!PED: Scott Lee Edwards, Stefan Gasch, and Sonja Tröster
!!!YEC: Copyright 2022 Denkmäler der Tonkunst in Österreich
!!!YEM: CC-BY-NC 4.0 (https://creativecommons.org/licenses/by-nc/4.0/legalcode)
!!!EED: Benjamin Ory
!!!EEV: 2024/12/1
!!!verovio: header encoded
!!!header-left: @{PTL}\n@{PED}, eds.\n@{PC#} (@{PDT})&nbsp;\n
!!!header-right:
!!!header-center: